client/src/img/default_event.svg

<svg xmlns="http://www.w3.org/2000/svg" width="700" height="350" viewBox="0 0 700 350">
  <g id="Groupe_11" data-name="Groupe 11" transform="translate(-539 -365)">
    <g id="default_event" transform="translate(-74 -147)">
      <rect id="Rectangle_3" data-name="Rectangle 3" width="700" height="350" transform="translate(613 512)" fill="#b3b6b8"/>
      <g id="Groupe_7" data-name="Groupe 7" transform="translate(-729 173)">
        <g id="Groupe_6" data-name="Groupe 6" transform="translate(1638 485)">
          <g id="Groupe_5" data-name="Groupe 5">
            <path id="Tracé_6" data-name="Tracé 6" d="M8,58.531a8,8,0,0,1-8-8V15.719a8,8,0,0,1,8-8H32.165A8,8,0,0,1,40.16,0H69.826a8,8,0,0,1,8,7.718H100.7a8,8,0,0,1,8,8V50.531a8,8,0,0,1-8,8Z" fill="none"/>
            <path id="Tracé_7" data-name="Tracé 7" d="M100.7,55.531a5.006,5.006,0,0,0,5-5V15.719a5.006,5.006,0,0,0-5-5H77.821a3,3,0,0,1-3-2.9,5,5,0,0,0-5-4.822H40.16a5,5,0,0,0-5,4.822,3,3,0,0,1-3,2.9H8a5.006,5.006,0,0,0-5,5V50.53a5.006,5.006,0,0,0,5,5h92.7m0,3H8a8,8,0,0,1-8-8V15.719a8,8,0,0,1,8-8H32.165A8,8,0,0,1,40.16,0H69.826a8,8,0,0,1,8,7.718H100.7a8,8,0,0,1,8,8V50.53A8,8,0,0,1,100.7,58.531Z" fill="#fff"/>
          </g>
          <g id="Ellipse_4" data-name="Ellipse 4" transform="translate(36.662 15.437)" fill="none" stroke="#fff" stroke-width="4">
            <circle cx="17.688" cy="17.688" r="17.688" stroke="none"/>
            <circle cx="17.688" cy="17.688" r="15.688" fill="none"/>
          </g>
        </g>
        <g id="Tracé_8" data-name="Tracé 8" transform="translate(1721.59 498.793)" fill="none">
          <path d="M6.444,0A6.444,6.444,0,1,1,0,6.444,6.444,6.444,0,0,1,6.444,0Z" stroke="none"/>
          <path d="M 6.443991661071777 3.000001907348633 C 4.544971466064453 3.000001907348633 3.000001907348633 4.544971466064453 3.000001907348633 6.443991661071777 C 3.000001907348633 8.343011856079102 4.544971466064453 9.887981414794922 6.443991661071777 9.887981414794922 C 8.343011856079102 9.887981414794922 9.887981414794922 8.343011856079102 9.887981414794922 6.443991661071777 C 9.887981414794922 4.544971466064453 8.343011856079102 3.000001907348633 6.443991661071777 3.000001907348633 M 6.443991661071777 1.9073486328125e-06 C 10.00291156768799 1.9073486328125e-06 12.88798141479492 2.885071754455566 12.88798141479492 6.443991661071777 C 12.88798141479492 10.00291156768799 10.00291156768799 12.88798141479492 6.443991661071777 12.88798141479492 C 2.885071754455566 12.88798141479492 1.9073486328125e-06 10.00291156768799 1.9073486328125e-06 6.443991661071777 C 1.9073486328125e-06 2.885071754455566 2.885071754455566 1.9073486328125e-06 6.443991661071777 1.9073486328125e-06 Z" stroke="none" fill="#fff"/>
        </g>
        <line id="Ligne_3" data-name="Ligne 3" y2="14" transform="translate(1692.5 511.5)" fill="none" stroke="#fff" stroke-linecap="round" stroke-width="2"/>
        <line id="Ligne_4" data-name="Ligne 4" x2="14" transform="translate(1685.5 518.5)" fill="none" stroke="#fff" stroke-linecap="round" stroke-width="2"/>
      </g>
    </g>
  </g>
</svg>

<svg xmlns="http://www.w3.org/2000/svg" width="700" height="350" viewBox="0 0 700 350"><g transform="translate(-613 -512)"><rect width="700" height="350" transform="translate(613 512)" fill="#b3b6b8"/><g transform="translate(-729 173)"><g transform="translate(1726.76 499.793)" fill="none" stroke="#fff" stroke-width="2"><circle cx="3.859" cy="3.859" r="3.859" stroke="none"/><circle cx="3.859" cy="3.859" r="2.859" fill="none"/></g><g transform="translate(1638 485)"><g transform="translate(0 0)" fill="none" stroke-linejoin="round"><path d="M8,58.531a8,8,0,0,1-8-8V15.719a8,8,0,0,1,8-8H32.165A8,8,0,0,1,40.16,0H69.826a8,8,0,0,1,8,7.718H100.7a8,8,0,0,1,8,8V50.531a8,8,0,0,1-8,8Z" stroke="none"/><path d="M 100.6992034912109 55.53060150146484 C 103.4562683105469 55.53060150146484 105.6993026733398 53.28756713867188 105.6993026733398 50.53050231933594 L 105.6993026733398 15.71850109100342 C 105.6993026733398 12.96143436431885 103.4562683105469 10.7184009552002 100.6992034912109 10.7184009552002 L 77.82078552246094 10.7184009552002 C 76.20435333251953 10.7184009552002 74.87853240966797 9.437717437744141 74.82258605957031 7.822250843048096 C 74.77764892578125 6.525150775909424 74.23785400390625 5.312200546264648 73.30261993408203 4.406850814819336 C 72.36544799804688 3.499634027481079 71.13063812255859 3.000000715255737 69.82559967041016 3.000000715255737 L 40.1598014831543 3.000000715255737 C 38.85476684570313 3.000000715255737 37.61993408203125 3.499634027481079 36.68276977539063 4.406850814819336 C 35.74753570556641 5.312200546264648 35.20773315429688 6.525150775909424 35.16279983520508 7.822250843048096 C 35.10684967041016 9.437717437744141 33.78103637695313 10.7184009552002 32.16460037231445 10.7184009552002 L 8.000101089477539 10.7184009552002 C 5.243034839630127 10.7184009552002 3.000001430511475 12.96143436431885 3.000001430511475 15.71850109100342 L 3.000001430511475 50.53050231933594 C 3.000001430511475 53.28756713867188 5.243034839630127 55.53060150146484 8.000101089477539 55.53060150146484 L 100.6992034912109 55.53060150146484 M 100.6992034912109 58.53060150146484 L 8.000101089477539 58.53060150146484 C 3.582001447677612 58.53060150146484 1.336669924967282e-06 54.94860076904297 1.336669924967282e-06 50.53050231933594 L 1.336669924967282e-06 15.71850109100342 C 1.336669924967282e-06 11.30040073394775 3.582001447677612 7.718400955200195 8.000101089477539 7.718400955200195 L 32.16460037231445 7.718400955200195 C 32.31310272216797 3.430867433547974 35.83520126342773 7.507323971367441e-07 40.1598014831543 7.507323971367441e-07 L 69.82559967041016 7.507323971367441e-07 C 74.15019989013672 7.507323971367441e-07 77.67228698730469 3.430867433547974 77.82078552246094 7.718400955200195 L 100.6992034912109 7.718400955200195 C 105.117301940918 7.718400955200195 108.6993026733398 11.30040073394775 108.6993026733398 15.71850109100342 L 108.6993026733398 50.53050231933594 C 108.6993026733398 54.94860076904297 105.117301940918 58.53060150146484 100.6992034912109 58.53060150146484 Z" stroke="none" fill="#fff"/></g><g transform="translate(36.662 15.437)" fill="none" stroke="#fff" stroke-width="3"><circle cx="17.688" cy="17.688" r="17.688" stroke="none"/><circle cx="17.688" cy="17.688" r="16.188" fill="none"/></g></g><g transform="translate(1726.76 499.793)" fill="none" stroke="#fff" stroke-width="2"><circle cx="3.859" cy="3.859" r="3.859" stroke="none"/><circle cx="3.859" cy="3.859" r="2.859" fill="none"/></g></g></g></svg>
